X:1
T:Psalm 125
L:1/4
M:10/4
I:linebreak $
K:G
V:1 treble nm="Pipe Organ" snm="Org."
V:1
 D2 A A B2 A2 F2 |$[M:12/4] F2 E F G2 F2 E2 z2 |$[M:8/4] A2 F B A G F2 |$ %3
w: Hy sal sy Si- on wat|op sy ver- los- sing wag,|nie e- wig- lik laat bly|
[M:12/4] D2 E G F2 E2 D4 |] %4
w: in ti- ran- nie- ke mag;|

